exports/Demographic-Transition-Mitchell_v1_850x600.svg

<svg xmlns="http://www.w3.org/2000/svg" version="1.1" style="background-color:#fff;-webkit-font-smoothing:antialiased" width="850" height="600" font-family="'Helvetica Neue',Helvetica,Arial,sans-serif" font-size="18" text-rendering="optimizeLegibility"><g class="ChartTab"><g class="HeaderView"><g opacity=".8" transform="matrix(.31 0 0 .31 770 15)"><a xmlns:xlink="http://www.w3.org/1999/xlink" xlink:href="https://ourworldindata.org" target="_blank"><g><path fill="#1B2543" d="M0 0h211.2v130.1H0z"/><path fill="#E63912" d="M0 112.2h211.2v17.9H0z"/><g><path fill="none" d="M1.2 12.3h210.2v99.2H1.2z"/><path fill="#FFF" d="M37.8 32.2c0 12.7-7.7 19.4-17.1 19.4-9.7 0-16.6-7.5-16.6-18.7 0-11.7 7.3-19.3 17.1-19.3 10.1.1 16.6 7.7 16.6 18.6zm-28.6.6c0 7.9 4.3 14.9 11.8 14.9 7.5 0 11.8-6.9 11.8-15.3 0-7.3-3.8-14.9-11.8-14.9-7.9 0-11.8 7.3-11.8 15.3zM62.7 43.8c0 2.7.1 5.1.2 7.2h-4.3l-.3-4.3h-.1c-1.3 2.1-4 4.9-8.8 4.9-4.2 0-9.1-2.3-9.1-11.6V24.6h4.8v14.6c0 5 1.5 8.4 5.9 8.4 3.2 0 5.5-2.2 6.3-4.4.3-.7.4-1.6.4-2.5V24.6h4.8v19.2zM67.3 32.8c0-3.1-.1-5.8-.2-8.2h4.2l.2 5.2h.2c1.2-3.5 4.1-5.8 7.3-5.8.5 0 .9.1 1.4.2v4.5c-.5-.1-1-.2-1.6-.2-3.4 0-5.8 2.6-6.5 6.2-.1.7-.2 1.4-.2 2.2V51h-4.8V32.8zM95.4 51L86 14.2h5l4.4 18.6c1.1 4.6 2.1 9.2 2.7 12.7h.1c.6-3.7 1.8-8 3-12.8l4.9-18.5h5l4.5 18.7c1 4.4 2 8.7 2.6 12.6h.1c.8-4 1.8-8.1 3-12.7l4.9-18.5h4.9L120.6 51h-5L111 31.9c-1.1-4.7-1.9-8.3-2.4-12h-.1c-.7 3.7-1.5 7.3-2.8 12L100.4 51h-5zM154.9 37.6c0 9.8-6.8 14-13.2 14-7.2 0-12.7-5.2-12.7-13.6 0-8.8 5.8-14 13.1-14 7.7 0 12.8 5.5 12.8 13.6zm-21 .3c0 5.8 3.3 10.1 8 10.1 4.6 0 8-4.3 8-10.3 0-4.5-2.2-10.1-7.9-10.1s-8.1 5.2-8.1 10.3zM158.2 32.8c0-3.1-.1-5.8-.2-8.2h4.2l.2 5.2h.2c1.2-3.5 4.1-5.8 7.3-5.8.5 0 .9.1 1.4.2v4.5c-.5-.1-1-.2-1.6-.2-3.4 0-5.8 2.6-6.5 6.2-.1.7-.2 1.4-.2 2.2V51h-4.8V32.8zM173.5 12.3h4.8V51h-4.8V12.3zM206.5 12.3v31.9c0 2.3.1 5 .2 6.8h-4.3l-.2-4.6h-.2c-1.5 2.9-4.7 5.2-9 5.2-6.4 0-11.3-5.4-11.3-13.4-.1-8.8 5.4-14.2 11.9-14.2 4 0 6.8 1.9 8 4h.1V12.3h4.8zm-4.8 23.1c0-.6-.1-1.4-.2-2a7 7 0 00-6.9-5.6c-5 0-7.9 4.4-7.9 10.2 0 5.3 2.6 9.8 7.8 9.8 3.2 0 6.2-2.1 7.1-5.7.2-.7.2-1.3.2-2.1v-4.6zM42.8 64c.1 1.6-1.1 2.9-3.1 2.9-1.7 0-2.9-1.3-2.9-2.9 0-1.7 1.3-3 3-3 1.9 0 3 1.3 3 3zm-5.4 33.8V71.4h4.8v26.4h-4.8zM47.5 78.6c0-2.7-.1-5-.2-7.1h4.3l.3 4.4h.1c1.3-2.5 4.4-5 8.8-5 3.7 0 9.4 2.2 9.4 11.2v15.8h-4.8V82.6c0-4.3-1.6-7.8-6.1-7.8-3.2 0-5.6 2.2-6.5 4.9-.2.6-.3 1.4-.3 2.2v15.9h-4.8V78.6zM84 61.6c2.9-.4 6.3-.8 10.1-.8 6.8 0 11.7 1.6 14.9 4.6 3.3 3 5.2 7.3 5.2 13.2 0 6-1.9 10.9-5.3 14.3-3.4 3.4-9.1 5.3-16.3 5.3-3.4 0-6.2-.2-8.6-.4V61.6zm4.8 32.5c1.2.2 3 .3 4.8.3 10.2 0 15.7-5.7 15.7-15.6.1-8.7-4.9-14.2-14.9-14.2-2.5 0-4.3.2-5.6.5v29zM132.1 97.8l-.4-3.3h-.2a9.79 9.79 0 01-8.1 3.9c-5.4 0-8.1-3.8-8.1-7.6 0-6.4 5.7-9.9 15.9-9.8v-.5c0-2.2-.6-6.1-6-6.1-2.5 0-5 .8-6.9 2l-1.1-3.2c2.2-1.4 5.4-2.3 8.7-2.3 8.1 0 10.1 5.5 10.1 10.8v9.9c0 2.3.1 4.5.4 6.3h-4.3zm-.7-13.4c-5.3-.1-11.2.8-11.2 5.9 0 3.1 2.1 4.6 4.5 4.6 3.4 0 5.6-2.2 6.4-4.4.2-.5.3-1 .3-1.5v-4.6zM146.6 63.9v7.6h6.9v3.7h-6.9v14.2c0 3.3.9 5.1 3.6 5.1 1.3 0 2.2-.2 2.8-.3l.2 3.6c-.9.4-2.4.7-4.3.7-2.2 0-4-.7-5.2-2-1.4-1.4-1.9-3.8-1.9-6.9V75.1h-4.1v-3.7h4.1v-6.3l4.8-1.2zM171.4 97.8l-.4-3.3h-.2a9.79 9.79 0 01-8.1 3.9c-5.4 0-8.1-3.8-8.1-7.6 0-6.4 5.7-9.9 15.9-9.8v-.5c0-2.2-.6-6.1-6-6.1-2.5 0-5 .8-6.9 2l-1.1-3.2c2.2-1.4 5.4-2.3 8.7-2.3 8.1 0 10.1 5.5 10.1 10.8v9.9c0 2.3.1 4.5.4 6.3h-4.3zm-.7-13.4c-5.3-.1-11.2.8-11.2 5.9 0 3.1 2.1 4.6 4.5 4.6 3.4 0 5.6-2.2 6.4-4.4.2-.5.3-1 .3-1.5v-4.6z"/></g></g></a></g><a href="https://ourworldindata.org/grapher/Demographic-Transition-Mitchell" target="_blank"><text font-size="21.6" x="15" y="32.3" fill="#555"><tspan x="15" y="32.28">The Demographic Transition: Decline of the death rate followed by a decline</tspan><tspan x="15" y="53.88">of the birth rate</tspan></text></a><text font-size="14.4" x="15" y="72.7" fill="#666"><tspan x="15" y="72.72">Both the birth and death rate are expressed per 1,000 of the population</tspan></text></g><g class="LineChart"><defs><clipPath id="a"><path d="M28.14 0h830v921.8h-830z"/></clipPath></defs><g class="AxisBoxView"><g class="HorizontalAxis" fill="#666" text-anchor="middle" font-size="16.2"><text x="38.1" y="556.5">1749</text><text x="162" y="556.5">1800</text><text x="283.3" y="556.5">1850</text><text x="404.7" y="556.5">1900</text><text x="526.1" y="556.5">1950</text><text x="671.8" y="556.5">2010</text></g><g class="VerticalAxis" fill="#666" dominant-baseline="middle" text-anchor="end" font-size="16.2"><text x="33.14" y="535.3">0</text><text x="33.14" y="451.5">10</text><text x="33.14" y="367.8">20</text><text x="33.14" y="284">30</text><text x="33.14" y="200.3">40</text><text x="33.14" y="116.5">50</text></g><g class="AxisGridLines"><path stroke="#ccc" d="M38.14 535.3h633.62"/><path stroke="#ddd" stroke-dasharray="3,2" d="M38.14 451.5h633.62M38.14 367.8h633.62M38.14 284h633.62M38.14 200.3h633.62M38.14 116.5h633.62"/></g><g class="AxisGridLines" stroke="#ddd" stroke-dasharray="3,2"><path d="M40.6 535.3V95.6M162 535.3V95.6M283.3 535.3V95.6M404.7 535.3V95.6M526.1 535.3V95.6M647.5 535.3V95.6"/></g></g><g clip-path="url(#a)"><g class="HeightedLegend clickable"><g class="legendMark"><path fill="#3360a9" d="M681.76 430.75h10v2.5h-10z"/><text font-size="14.4" x="696.8" y="436.3" fill="#333"><tspan x="696.76" y="436.32">Sweden - Birth Rate</tspan></text></g><g class="legendMark"><path fill="#ca2628" d="M681.76 453.25h10v2.5h-10z"/><text font-size="14.4" x="696.8" y="458.8" fill="#333"><tspan x="696.76" y="458.82">Sweden - Death Rate</tspan></text></g></g><g class="Lines"><g class="key-Sweden_0"><path stroke="#3360a9" stroke-linecap="round" d="M38 252l3-22 2-19 2 24 3-2 2-9 3-3 2 12 3 29 2-6 2-2 3-18 2 8 3-3 2 1 3 3 2 11 2-4 3-13 2 15 3 4 2 1 3 7 2 27 2 29 3-76 2-9 3 23 2-1 3-15 2-16 2 8 3 19 2 12 3 15 2-10h3l2-12 2 12 3-21 2 16 3 13 2-18 3-33 2 18 2 5 3 15 2-22 3-1 2 9 3 14 2 28 2-11 3-14 2 2 3-4 2 2 3 7 2-3 2 7 3 31 2-53 3-19 2 14 3 33 2-13 2-30 3-4 2 16 3-4 2 7h3l2-20 2-4 3-8 2 19 3-16 2 14 3 29 2-19 2-11 3 17 2 20 3-3 2-27 3 3 2 8 2 8 3 8 2 12 3-1 2-16 3 10 2-12 2 7 3-11 2 6 3 13 2 2 3-5 2-21 2 7 3 2 2 8 3-6 2-17 3 14 2 3 2-8 3-20 2-2 3 2 2 18 3-6 2-2h2l3 7 2-3 3 19 2 28 3-7 2-4 2-13 3 3 2-7h3l2-3 3 3 2-2 2 11 3-6 2 9 3 3 2-3 2 4 3-9 2 5 3-3 2 1 3 7 2 9 2-2 3-3 2 11 3-3 2 2 3-3 2 3 2 4 3-4 2 6 3-5h2l3 4 2 7 2-1 3 1h2l3 2 2-2 3 1 2 7 2 6 3 2 2 5 3 3 2 10 3 4 2 2 2 5 3 5 2-32 3 17 2 16 3 6 2 7 2 4 3 7 2 6h3l2 7 3-2 2 5 2 3 3 7h2l3-1 2-4 3-1 2-4 2-5 3 3 2-4 3-18 2-13 3-11 2 1 2 6 3 7 2 4 3 9 2 7 3 8 2 1h2l3 7 2-2h3l2 2 3 3 2 1 2 4 3-2 2-3 3-5 2-10 3 1 2 1 2 3 3 10 2 6 3-1 2-4 3 3 2 2h2l3 8 2 5 3 3 2 3 3-3 2-1 2 4 3 1 2 1 3-2 2-4 3-4 2-2 2-7 3-3 2-7 3 1 2 1 3 6 2 8 2 7 3 8 2 5 3 2h2l3-2 2-1 2-3 3-4h5l2-4 3-1 2-1 2-1 3-3" fill="none" stroke-width="1.5"/></g><g class="key-Sweden_1"><path stroke="#ca2628" stroke-linecap="round" d="M38 300l3 10 2 6 2-9 3 27 2-19 3-9 2-3 3-18 2-21 2 51 3 13 2-9 3-45 2-14 3 48 2-5 2 22 3-4 2-13h3l2 9 3-14 2-81 2-126 3 252 2-20 3 19 2-20 3-15 2-15 2 57 3-33 2-14 3-7 2-14 3 12 2 20 2 16 3-22 2-54 3 22 2 42 3 13 2-3 2 6 3-36 2 26 3 8 2 6 3-18 2-52 2 45 3 20 2-1 3-9 2 12 3-34 2 11 2-73 3-43 2 71 3 23 2-12 3 24 2 19 2 13 3 7 2-13 3-1 2-25 3 24 2-9 2 25 3 13 2 2 3 3 2-18 3-4 2-30 2-20 3 42 2-16 3 21 2 15 3-34 2 60 2-12 3-40 2 6 3 4 2 26 3 9 2-14 2-4 3 10 2 13 3-25 2-16 3 33h4l3-8 2-17 3-8 2 33 3-15 2-2 2-49 3 50 2 13 3 20 2-7 3-24 2 18 2-9 3 8 2-5 3 3 2-12 3-10 2 21 2 21 3 8 2-8 3-26h2l3 6 2 8 2 5 3 10 2-10 3 3 2 3h2l3-1 2-3 3 10 2 5h5l2-9 3 3 2-10 3 10 2 3 3 10 2-3 2 1 3 3 2-22 3 8 2 6 3 5 2 3 2-2 3-2 2 10 3-2 2-2 3 10 2-3 2 2 3-4 2 5 3-1 2-8 3 9 2 2 2-38 3 29 2 10 3 7 2-3 3 12 2-5 2 2h3l2-8 3 6 2-2 3 4 2-6 2 7 3 4h2l3-5 2-2h3l2 4h2l3 1 2 1 3 11 2-2 3-7 2 2 2 2 3-2 2 8 3-1h5l2 3 2-1 3 1 2 1 3-1 2-3 3 3 2 1 2-4 3 1 2-3 3 1 2 1 3-1h4l3-3 2-1 3 5 2-2 3-1 2-2h2l3-2 2-2 3 3 2-1 3-2h2l2-1 3 2h5l2-3 3 1h2l2-3 3 6 2-3 3 1 2 1 3-2 2 1h2l3 4h5l2-1 3 1h4l3 1 2 3 3-1 2 1h3l2 1 2 2 3 1" fill="none" stroke-width="1.5"/></g></g></g></g><g class="SourcesFooter" fill="#777"><g class="clickable" fill="#777"><text font-size="12.6" x="15" y="581.6"><tspan x="15" y="581.58">Source: Brian Mitchell - International Historical Statistics</tspan></text></g><text font-size="12.6" x="507.1" y="581.6"><tspan x="507.15" y="581.58"><a target="_blank" href="https://ourworldindata.org/world-population-growth/" fill="#777">OurWorldInData.org/world-population-growth/</a> • <a href="http://creativecommons.org/licenses/by-sa/4.0/deed.en_US" target="_blank" fill="#777">CC BY-SA</a></tspan></text></g></g></svg>

<svg xmlns="http://www.w3.org/2000/svg" version="1.1" style="font-family: 'Helvetica Neue', Helvetica, Arial, sans-serif; font-size: 18px; background-color: white; text-rendering: optimizeLegibility; -webkit-font-smoothing: antialiased;" width="850" height="600"><g class="ChartTab"><g class="HeaderView"><g opacity="0.8" transform="translate(770, 15) scale(0.31)"><a xmlns:xlink="http://www.w3.org/1999/xlink" xlink:href="https://ourworldindata.org" target="_blank"><g><rect x="0" y="0" fill="#1B2543" width="211.2" height="130.1"/><rect x="0" y="112.2" fill="#E63912" width="211.2" height="17.9"/><g><rect x="1.2" y="12.3" fill="none" width="210.2" height="99.2"/><path fill="#FFFFFF" d="M37.8,32.2c0,12.7-7.7,19.4-17.1,19.4c-9.7,0-16.6-7.5-16.6-18.7c0-11.7,7.3-19.3,17.1-19.3 C31.3,13.7,37.8,21.3,37.8,32.2z M9.2,32.8c0,7.9,4.3,14.9,11.8,14.9c7.5,0,11.8-6.9,11.8-15.3c0-7.3-3.8-14.9-11.8-14.9 C13.1,17.5,9.2,24.8,9.2,32.8z"/><path fill="#FFFFFF" d="M62.7,43.8c0,2.7,0.1,5.1,0.2,7.2h-4.3l-0.3-4.3h-0.1c-1.3,2.1-4,4.9-8.8,4.9c-4.2,0-9.1-2.3-9.1-11.6 V24.6h4.8v14.6c0,5,1.5,8.4,5.9,8.4c3.2,0,5.5-2.2,6.3-4.4c0.3-0.7,0.4-1.6,0.4-2.5V24.6h4.8V43.8z"/><path fill="#FFFFFF" d="M67.3,32.8c0-3.1-0.1-5.8-0.2-8.2h4.2l0.2,5.2h0.2c1.2-3.5,4.1-5.8,7.3-5.8c0.5,0,0.9,0.1,1.4,0.2v4.5 c-0.5-0.1-1-0.2-1.6-0.2c-3.4,0-5.8,2.6-6.5,6.2c-0.1,0.7-0.2,1.4-0.2,2.2V51h-4.8V32.8z"/><path fill="#FFFFFF" d="M95.4,51l-9.4-36.8h5l4.4,18.6c1.1,4.6,2.1,9.2,2.7,12.7h0.1c0.6-3.7,1.8-8,3-12.8l4.9-18.5h5l4.5,18.7 c1,4.4,2,8.7,2.6,12.6h0.1c0.8-4,1.8-8.1,3-12.7l4.9-18.5h4.9L120.6,51h-5L111,31.9c-1.1-4.7-1.9-8.3-2.4-12h-0.1 c-0.7,3.7-1.5,7.3-2.8,12L100.4,51H95.4z"/><path fill="#FFFFFF" d="M154.9,37.6c0,9.8-6.8,14-13.2,14c-7.2,0-12.7-5.2-12.7-13.6c0-8.8,5.8-14,13.1-14 C149.8,24,154.9,29.5,154.9,37.6z M133.9,37.9c0,5.8,3.3,10.1,8,10.1c4.6,0,8-4.3,8-10.3c0-4.5-2.2-10.1-7.9-10.1 C136.3,27.6,133.9,32.8,133.9,37.9z"/><path fill="#FFFFFF" d="M158.2,32.8c0-3.1-0.1-5.8-0.2-8.2h4.2l0.2,5.2h0.2c1.2-3.5,4.1-5.8,7.3-5.8c0.5,0,0.9,0.1,1.4,0.2v4.5 c-0.5-0.1-1-0.2-1.6-0.2c-3.4,0-5.8,2.6-6.5,6.2c-0.1,0.7-0.2,1.4-0.2,2.2V51h-4.8V32.8z"/><path fill="#FFFFFF" d="M173.5,12.3h4.8V51h-4.8V12.3z"/><path fill="#FFFFFF" d="M206.5,12.3v31.9c0,2.3,0.1,5,0.2,6.8h-4.3l-0.2-4.6H202c-1.5,2.9-4.7,5.2-9,5.2 c-6.4,0-11.3-5.4-11.3-13.4c-0.1-8.8,5.4-14.2,11.9-14.2c4,0,6.8,1.9,8,4h0.1V12.3H206.5z M201.7,35.4c0-0.6-0.1-1.4-0.2-2 c-0.7-3.1-3.3-5.6-6.9-5.6c-5,0-7.9,4.4-7.9,10.2c0,5.3,2.6,9.8,7.8,9.8c3.2,0,6.2-2.1,7.1-5.7c0.2-0.7,0.2-1.3,0.2-2.1V35.4z"/><path fill="#FFFFFF" d="M42.8,64c0.1,1.6-1.1,2.9-3.1,2.9c-1.7,0-2.9-1.3-2.9-2.9c0-1.7,1.3-3,3-3C41.7,61,42.8,62.3,42.8,64z M37.4,97.8V71.4h4.8v26.4H37.4z"/><path fill="#FFFFFF" d="M47.5,78.6c0-2.7-0.1-5-0.2-7.1h4.3l0.3,4.4h0.1c1.3-2.5,4.4-5,8.8-5c3.7,0,9.4,2.2,9.4,11.2v15.8h-4.8 V82.6c0-4.3-1.6-7.8-6.1-7.8c-3.2,0-5.6,2.2-6.5,4.9c-0.2,0.6-0.3,1.4-0.3,2.2v15.9h-4.8V78.6z"/><path fill="#FFFFFF" d="M84,61.6c2.9-0.4,6.3-0.8,10.1-0.8c6.8,0,11.7,1.6,14.9,4.6c3.3,3,5.2,7.3,5.2,13.2c0,6-1.9,10.9-5.3,14.3 c-3.4,3.4-9.1,5.3-16.3,5.3c-3.4,0-6.2-0.2-8.6-0.4V61.6z M88.8,94.1c1.2,0.2,3,0.3,4.8,0.3c10.2,0,15.7-5.7,15.7-15.6 c0.1-8.7-4.9-14.2-14.9-14.2c-2.5,0-4.3,0.2-5.6,0.5V94.1z"/><path fill="#FFFFFF" d="M132.1,97.8l-0.4-3.3h-0.2c-1.5,2.1-4.3,3.9-8.1,3.9c-5.4,0-8.1-3.8-8.1-7.6c0-6.4,5.7-9.9,15.9-9.8v-0.5 c0-2.2-0.6-6.1-6-6.1c-2.5,0-5,0.8-6.9,2l-1.1-3.2c2.2-1.4,5.4-2.3,8.7-2.3c8.1,0,10.1,5.5,10.1,10.8v9.9c0,2.3,0.1,4.5,0.4,6.3 H132.1z M131.4,84.4c-5.3-0.1-11.2,0.8-11.2,5.9c0,3.1,2.1,4.6,4.5,4.6c3.4,0,5.6-2.2,6.4-4.4c0.2-0.5,0.3-1,0.3-1.5V84.4z"/><path fill="#FFFFFF" d="M146.6,63.9v7.6h6.9v3.7h-6.9v14.2c0,3.3,0.9,5.1,3.6,5.1c1.3,0,2.2-0.2,2.8-0.3l0.2,3.6 c-0.9,0.4-2.4,0.7-4.3,0.7c-2.2,0-4-0.7-5.2-2c-1.4-1.4-1.9-3.8-1.9-6.9V75.1h-4.1v-3.7h4.1v-6.3L146.6,63.9z"/><path fill="#FFFFFF" d="M171.4,97.8l-0.4-3.3h-0.2c-1.5,2.1-4.3,3.9-8.1,3.9c-5.4,0-8.1-3.8-8.1-7.6c0-6.4,5.7-9.9,15.9-9.8v-0.5 c0-2.2-0.6-6.1-6-6.1c-2.5,0-5,0.8-6.9,2l-1.1-3.2c2.2-1.4,5.4-2.3,8.7-2.3c8.1,0,10.1,5.5,10.1,10.8v9.9c0,2.3,0.1,4.5,0.4,6.3 H171.4z M170.7,84.4c-5.3-0.1-11.2,0.8-11.2,5.9c0,3.1,2.1,4.6,4.5,4.6c3.4,0,5.6-2.2,6.4-4.4c0.2-0.5,0.3-1,0.3-1.5V84.4z"/></g></g></a></g><a href="https://ourworldindata.org/grapher/Demographic-Transition-Mitchell" target="_blank"><text font-size="21.60" x="15.0" y="32.3" fill="#555"><tspan x="15" y="32.279999999999994">The Demographic Transition: Decline of the death rate followed by a decline</tspan><tspan x="15" y="53.87999999999999">of the birth rate</tspan></text></a><text font-size="14.40" x="15.0" y="72.7" fill="#666"><tspan x="15" y="72.72">Both the birth and death rate are expressed per 1,000 of the population</tspan></text></g><g class="LineChart"><defs><clipPath id="boundsClip-45"><rect x="28.144000000000005" y="0" width="830" height="921.8000000000001"></rect></clipPath></defs><g class="AxisBoxView"><g class="HorizontalAxis"><text x="38.1" y="556.5" fill="#666" text-anchor="middle" font-size="16.2">1749</text><text x="162" y="556.5" fill="#666" text-anchor="middle" font-size="16.2">1800</text><text x="283.3" y="556.5" fill="#666" text-anchor="middle" font-size="16.2">1850</text><text x="404.7" y="556.5" fill="#666" text-anchor="middle" font-size="16.2">1900</text><text x="526.1" y="556.5" fill="#666" text-anchor="middle" font-size="16.2">1950</text><text x="671.8" y="556.5" fill="#666" text-anchor="middle" font-size="16.2">2010</text></g><g class="VerticalAxis"><text x="33.14" y="535.3" fill="#666" dominant-baseline="middle" text-anchor="end" font-size="16.2">0</text><text x="33.14" y="451.5" fill="#666" dominant-baseline="middle" text-anchor="end" font-size="16.2">10</text><text x="33.14" y="367.8" fill="#666" dominant-baseline="middle" text-anchor="end" font-size="16.2">20</text><text x="33.14" y="284" fill="#666" dominant-baseline="middle" text-anchor="end" font-size="16.2">30</text><text x="33.14" y="200.3" fill="#666" dominant-baseline="middle" text-anchor="end" font-size="16.2">40</text><text x="33.14" y="116.5" fill="#666" dominant-baseline="middle" text-anchor="end" font-size="16.2">50</text></g><g class="AxisGridLines"><line x1="38.14" y1="535.3" x2="671.76" y2="535.3" stroke="#ccc"></line><line x1="38.14" y1="451.5" x2="671.76" y2="451.5" stroke="#ddd" stroke-dasharray="3,2"></line><line x1="38.14" y1="367.8" x2="671.76" y2="367.8" stroke="#ddd" stroke-dasharray="3,2"></line><line x1="38.14" y1="284" x2="671.76" y2="284" stroke="#ddd" stroke-dasharray="3,2"></line><line x1="38.14" y1="200.3" x2="671.76" y2="200.3" stroke="#ddd" stroke-dasharray="3,2"></line><line x1="38.14" y1="116.5" x2="671.76" y2="116.5" stroke="#ddd" stroke-dasharray="3,2"></line></g><g class="AxisGridLines"><line x1="40.6" y1="535.30" x2="40.6" y2="95.60" stroke="#ddd" stroke-dasharray="3,2"></line><line x1="162" y1="535.30" x2="162" y2="95.60" stroke="#ddd" stroke-dasharray="3,2"></line><line x1="283.3" y1="535.30" x2="283.3" y2="95.60" stroke="#ddd" stroke-dasharray="3,2"></line><line x1="404.7" y1="535.30" x2="404.7" y2="95.60" stroke="#ddd" stroke-dasharray="3,2"></line><line x1="526.1" y1="535.30" x2="526.1" y2="95.60" stroke="#ddd" stroke-dasharray="3,2"></line><line x1="647.5" y1="535.30" x2="647.5" y2="95.60" stroke="#ddd" stroke-dasharray="3,2"></line></g></g><g clip-path="url(#boundsClip-45)"><g class="HeightedLegend clickable"><g class="legendMark"><rect x="681.76" y="424.8" width="144.312" height="14.4" fill="#fff" opacity="0"></rect><rect x="681.76" y="430.75" width="10" height="2.5" fill="#3360a9"></rect><text font-size="14.40" x="696.8" y="436.3" fill="#333"><tspan x="696.76" y="436.32">Sweden - Birth Rate</tspan></text></g><g class="legendMark"><rect x="681.76" y="447.3" width="153.24" height="14.4" fill="#fff" opacity="0"></rect><rect x="681.76" y="453.25" width="10" height="2.5" fill="#ca2628"></rect><text font-size="14.40" x="696.8" y="458.8" fill="#333"><tspan x="696.76" y="458.82">Sweden - Death Rate</tspan></text></g></g><g class="Lines"><rect x="38" y="96" width="634" height="440" fill="rgba(255,255,255,0)" opacity="0"></rect><g class="key-Sweden_0"><path stroke="#3360a9" stroke-linecap="round" d="M38 252L41 230L43 211L45 235L48 233L50 224L53 221L55 233L58 262L60 256L62 254L65 236L67 244L70 241L72 242L75 245L77 256L79 252L82 239L84 254L87 258L89 259L92 266L94 293L96 322L99 246L101 237L104 260L106 259L109 244L111 228L113 236L116 255L118 267L121 282L123 272L126 272L128 260L130 272L133 251L135 267L138 280L140 262L143 229L145 247L147 252L150 267L152 245L155 244L157 253L160 267L162 295L164 284L167 270L169 272L172 268L174 270L177 277L179 274L181 281L184 312L186 259L189 240L191 254L194 287L196 274L198 244L201 240L203 256L206 252L208 259L211 259L213 239L215 235L218 227L220 246L223 230L225 244L228 273L230 254L232 243L235 260L237 280L240 277L242 250L245 253L247 261L249 269L252 277L254 289L257 288L259 272L262 282L264 270L266 277L269 266L271 272L274 285L276 287L279 282L281 261L283 268L286 270L288 278L291 272L293 255L296 269L298 272L300 264L303 244L305 242L308 244L310 262L313 256L315 254L317 254L320 261L322 258L325 277L327 305L330 298L332 294L334 281L337 284L339 277L342 277L344 274L347 277L349 275L351 286L354 280L356 289L359 292L361 289L363 293L366 284L368 289L371 286L373 287L376 294L378 303L380 301L383 298L385 309L388 306L390 308L393 305L395 308L397 312L400 308L402 314L405 309L407 309L410 313L412 320L414 319L417 320L419 320L422 322L424 320L427 321L429 328L431 334L434 336L436 341L439 344L441 354L444 358L446 360L448 365L451 370L453 338L456 355L458 371L461 377L463 384L465 388L468 395L470 401L473 401L475 408L478 406L480 411L482 414L485 421L487 421L490 420L492 416L495 415L497 411L499 406L502 409L504 405L507 387L509 374L512 363L514 364L516 370L519 377L521 381L524 390L526 397L529 405L531 406L533 406L536 413L538 411L541 411L543 413L546 416L548 417L550 421L553 419L555 416L558 411L560 401L563 402L565 403L567 406L570 416L572 422L575 421L577 417L580 420L582 422L584 422L587 430L589 435L592 438L594 441L597 438L599 437L601 441L604 442L606 443L609 441L611 437L614 433L616 431L618 424L621 421L623 414L626 415L628 416L631 422L633 430L635 437L638 445L640 450L643 452L645 452L648 450L650 449L652 446L655 442L657 442L660 442L662 438L665 437L667 436L669 435L672 432" fill="none" stroke-width="1.5"></path></g><g class="key-Sweden_1"><path stroke="#ca2628" stroke-linecap="round" d="M38 300L41 310L43 316L45 307L48 334L50 315L53 306L55 303L58 285L60 264L62 315L65 328L67 319L70 274L72 260L75 308L77 303L79 325L82 321L84 308L87 308L89 317L92 303L94 222L96 96L99 348L101 328L104 347L106 327L109 312L111 297L113 354L116 321L118 307L121 300L123 286L126 298L128 318L130 334L133 312L135 258L138 280L140 322L143 335L145 332L147 338L150 302L152 328L155 336L157 342L160 324L162 272L164 317L167 337L169 336L172 327L174 339L177 305L179 316L181 243L184 200L186 271L189 294L191 282L194 306L196 325L198 338L201 345L203 332L206 331L208 306L211 330L213 321L215 346L218 359L220 361L223 364L225 346L228 342L230 312L232 292L235 334L237 318L240 339L242 354L245 320L247 380L249 368L252 328L254 334L257 338L259 364L262 373L264 359L266 355L269 365L271 378L274 353L276 337L279 370L281 370L283 370L286 362L288 345L291 337L293 370L296 355L298 353L300 304L303 354L305 367L308 387L310 380L313 356L315 374L317 365L320 373L322 368L325 371L327 359L330 349L332 370L334 391L337 399L339 391L342 365L344 365L347 371L349 379L351 384L354 394L356 384L359 387L361 390L363 390L366 389L368 386L371 396L373 401L376 401L378 401L380 392L383 395L385 385L388 395L390 398L393 408L395 405L397 406L400 409L402 387L405 395L407 401L410 406L412 409L414 407L417 405L419 415L422 413L424 411L427 421L429 418L431 420L434 416L436 421L439 420L441 412L444 421L446 423L448 385L451 414L453 424L456 431L458 428L461 440L463 435L465 437L468 437L470 429L473 435L475 433L478 437L480 431L482 438L485 442L487 442L490 437L492 435L495 435L497 439L499 439L502 440L504 441L507 452L509 450L512 443L514 445L516 447L519 445L521 453L524 452L526 452L529 452L531 455L533 454L536 455L538 456L541 455L543 452L546 455L548 456L550 452L553 453L555 450L558 451L560 452L563 451L565 451L567 451L570 448L572 447L575 452L577 450L580 449L582 447L584 447L587 445L589 443L592 446L594 445L597 443L599 443L601 442L604 444L606 444L609 444L611 441L614 442L616 442L618 439L621 445L623 442L626 443L628 444L631 442L633 443L635 443L638 447L640 447L643 447L645 446L648 447L650 447L652 447L655 448L657 451L660 450L662 451L665 451L667 452L669 454L672 455" fill="none" stroke-width="1.5"></path></g></g></g></g><g style="fill: #777;" class="SourcesFooter"><g style="fill: #777;" class="clickable"><text font-size="12.60" x="15.0" y="581.6"><tspan x="15" y="581.58">Source: Brian Mitchell - International Historical Statistics</tspan></text></g><text font-size="12.60" x="507.1" y="581.6"><tspan x="507.148" y="581.58"><a target='_blank' style='fill: #777;' href='https://ourworldindata.org/world-population-growth/'>OurWorldInData.org/world-population-growth/</a> • <a style="fill: #777;" href="http://creativecommons.org/licenses/by-sa/4.0/deed.en_US" target="_blank">CC BY-SA</a></tspan></text></g></g></svg>
